rootfs/usr/share/colord/illuminant/CIE-F6.sp
SPECT  
DISPLAY	"CIE-F6"
ORIGINATOR	"cd-it8"
CREATED	"Fri Nov 06 18:30:16 2015"
DESCRIPTOR	"Spectral Power"
SPECTRAL_START_NM	380.0
SPECTRAL_END_NM	780.0
SPECTRAL_BANDS	81
NUMBER_OF_FIELDS	81
NUMBER_OF_SETS	1
BEGIN_DATA_FORMAT
 SPEC_380	SPEC_385	SPEC_390	SPEC_395	SPEC_400	SPEC_405	SPEC_410	SPEC_415	SPEC_420	SPEC_425	SPEC_430	SPEC_435	SPEC_440	SPEC_445	SPEC_450	SPEC_455	SPEC_460	SPEC_465	SPEC_470	SPEC_475	SPEC_480	SPEC_485	SPEC_490	SPEC_495	SPEC_500	SPEC_505	SPEC_510	SPEC_515	SPEC_520	SPEC_525	SPEC_530	SPEC_535	SPEC_540	SPEC_545	SPEC_550	SPEC_555	SPEC_560	SPEC_565	SPEC_570	SPEC_575	SPEC_580	SPEC_585	SPEC_590	SPEC_595	SPEC_600	SPEC_605	SPEC_610	SPEC_615	SPEC_620	SPEC_625	SPEC_630	SPEC_635	SPEC_640	SPEC_645	SPEC_650	SPEC_655	SPEC_660	SPEC_665	SPEC_670	SPEC_675	SPEC_680	SPEC_685	SPEC_690	SPEC_695	SPEC_700	SPEC_705	SPEC_710	SPEC_715	SPEC_720	SPEC_725	SPEC_730	SPEC_735	SPEC_740	SPEC_745	SPEC_750	SPEC_755	SPEC_760	SPEC_765	SPEC_770	SPEC_775	SPEC_780
END_DATA_FORMAT
BEGIN_DATA
 0.0105	0.0131	0.0163	0.019	0.0311	0.148	0.0343	0.033	0.0368	0.0407	0.0445	0.3261	0.1074	0.0548	0.0578	0.0603	0.0625	0.0641	0.0652	0.0658	0.0659	0.0656	0.0656	0.0642	0.0628	0.062	0.0619	0.063	0.066	0.0712	0.0794	0.0907	0.1049	0.2522	0.1746	0.1563	0.1722	0.1853	0.1943	0.2197	0.2301	0.1941	0.1856	0.1742	0.1609	0.1464	0.1315	0.1168	0.1025	0.0896	0.0774	0.0669	0.0571	0.0487	0.0416	0.0355	0.0302	0.0257	0.022	0.0187	0.016	0.0137	0.0129	0.0105	0.0091	0.0081	0.0071	0.0061	0.0054	0.0048	0.0044	0.0043	0.004	0.0037	0.0038	0.0035	0.0039	0.0041	0.0033	0.0026	0.0021
END_DATA
